X: 2
T:Gogerddan
T:The End of the Glen
M:2/4
L:1/8
Q:280
C:Trad
S:51 Welsh Airs
A:Wales
H:From a facsimile c. 1820:A Choice Collection of Fifty-One Welsh Airs
H:adapted for The Harp, Piano-Forte, Harpsichord,
H:Violin, or Flute by Edward Jones
H:"Harper to His Late Majesty King George IV, when
H:Prince of Wales".
Z:brian_martin12345@yahoo.com
K:G
"Graceful"
GB Bd|cA .Ad/c/|B/A/G/A/ BA|G3z|e2ef|g2f2|ge ef|.gg/b/ .ff/a/|
ge ef|gd/g/ fe|dB cA|Gd Bd|e2 ag|{fg}f>e fd|
gd ed|cB .Ad/c/|B/A/G/A/ {AB}A>G|G4:||!
e2ef|.gg/b/ .ff/a/|ge ef|g/b/a/g/ f/a/g/f/|
ge ef|.gd/g/ fe|dB ce|{de}d3d|
e2 ag|{fg}f>e fd|.gd ed|cB .Ad/c/|B/A/G/A/ {AB}A>G|G4:||

